src/assets/compendia/icons/tokens-core/department-security-rank-8-token.svg

<svg xmlns="http://www.w3.org/2000/svg" xml:space="preserve" style="fill-rule:evenodd;clip-rule:evenodd;stroke-linecap:round;stroke-miterlimit:1.5" viewBox="0 0 256 256"><path d="M0 0h256v256H0z" style="fill:none"/><g><circle cx="128" cy="128" r="128"/><path d="M128 0c70.645 0 128 57.355 128 128s-57.355 128-128 128S0 198.645 0 128 57.355 0 128 0m0 8C61.77 8 8 61.77 8 128s53.77 120 120 120 120-53.77 120-120S194.23 8 128 8" style="fill:#f5d63d"/><path d="M1324 9.033c-8.03.503-14.46 6.938-14.95 14.967h-1.55v2h1.55c.49 8.031 6.92 14.465 14.95 14.968V42.5h2v-1.53c8.04-.489 14.49-6.93 14.98-14.97h1.52v-2h-1.52c-.49-8.039-6.94-14.479-14.98-14.969V7.5h-2zM1338.98 26c-.49 6.935-6.04 12.482-12.98 12.966v-2.007c5.83-.482 10.48-5.133 10.96-10.959zm-25.94 0c.48 5.827 5.13 10.478 10.96 10.959v2.005c-6.92-.498-12.46-6.039-12.95-12.964zm10.96 6.434a7.5 7.5 0 0 1-6.43-6.434h6.43zm8.43-6.434a7.5 7.5 0 0 1-6.43 6.434V26zM1324 11.037v6.53a7.5 7.5 0 0 0-6.43 6.433h-6.52c.49-6.924 6.03-12.466 12.95-12.963m2-.002c6.94.483 12.49 6.03 12.98 12.965h-6.55a7.5 7.5 0 0 0-6.43-6.433z" style="fill:#f5d63d" transform="translate(-5550.57 20.857)scale(4.28571)"/><path d="M1916.84 1455.5c3.71.33 7.44.5 11.16.5s7.45-.17 11.16-.5l-1.68-19.73c-3.15.29-6.32.43-9.48.43s-6.33-.14-9.48-.43z" style="fill:none;stroke:#f5d63d;stroke-width:8.66px" transform="matrix(.9375 0 0 .9091 -1679.5 -1075.64)"/><path d="M1894.87 1451.5a124.2 124.2 0 0 0 66.26 0l-4.97-19.12c-9.18 2.53-18.65 3.82-28.16 3.82s-18.97-1.29-28.16-3.82z" style="fill:none;stroke:#f5d63d;stroke-width:8.66px" transform="matrix(.9375 0 0 .9091 -1679.5 -1075.64)"/><path d="M1873.9 1443.63c16.95 8.15 35.41 12.37 54.1 12.37s37.15-4.22 54.1-12.37l-8.12-17.94c-14.4 6.92-30.09 10.51-45.98 10.51s-31.58-3.59-45.98-10.51z" style="fill:none;stroke:#f5d63d;stroke-width:8.66px" transform="matrix(.9375 0 0 .9091 -1679.5 -1075.64)"/></g></svg>

<?xml version="1.0" encoding="UTF-8" standalone="no"?>
<!DOCTYPE svg PUBLIC "-//W3C//DTD SVG 1.1//EN" "http://www.w3.org/Graphics/SVG/1.1/DTD/svg11.dtd">
<svg width="100%" height="100%" viewBox="0 0 256 256" version="1.1" xmlns="http://www.w3.org/2000/svg" xmlns:xlink="http://www.w3.org/1999/xlink" xml:space="preserve" xmlns:serif="http://www.serif.com/" style="fill-rule:evenodd;clip-rule:evenodd;stroke-linecap:round;stroke-miterlimit:1.5;">
    <g transform="matrix(1,0,0,1,-7500,-3300)">
        <g transform="matrix(1,0,0,1,7500,3300)">
            <rect id="department-security-rank-8-token" x="0" y="0" width="256" height="256" style="fill:none;"/>
            <g id="department-security-rank-8-token1" serif:id="department-security-rank-8-token">
                <circle cx="128" cy="128" r="128"/>
                <path d="M128,0C198.645,0 256,57.355 256,128C256,198.645 198.645,256 128,256C57.355,256 0,198.645 0,128C0,57.355 57.355,0 128,0ZM128,8C61.77,8 8,61.77 8,128C8,194.23 61.77,248 128,248C194.23,248 248,194.23 248,128C248,61.77 194.23,8 128,8Z" style="fill:rgb(245,214,61);"/>
                <g transform="matrix(4.28571,0,0,4.28571,-5550.57,20.8571)">
                    <g id="Security">
                        <path id="Security1" serif:id="Security" d="M1324,9.033C1315.97,9.536 1309.54,15.971 1309.05,24L1307.5,24L1307.5,26L1309.05,26C1309.54,34.031 1315.97,40.465 1324,40.968L1324,42.5L1326,42.5L1326,40.97C1334.04,40.481 1340.49,34.04 1340.98,26L1342.5,26L1342.5,24L1340.98,24C1340.49,15.961 1334.04,9.521 1326,9.031L1326,7.5L1324,7.5L1324,9.033ZM1338.98,26C1338.49,32.935 1332.94,38.482 1326,38.966L1326,36.959C1331.83,36.477 1336.48,31.826 1336.96,26L1338.98,26ZM1313.04,26C1313.52,31.827 1318.17,36.478 1324,36.959L1324,38.964C1317.08,38.466 1311.54,32.925 1311.05,26L1313.04,26ZM1324,32.434C1320.66,31.988 1318.01,29.34 1317.57,26L1324,26L1324,32.434ZM1332.43,26C1331.99,29.34 1329.34,31.988 1326,32.434L1326,26L1332.43,26ZM1324,11.037L1324,17.567C1320.66,18.012 1318.01,20.66 1317.57,24L1311.05,24C1311.54,17.076 1317.08,11.534 1324,11.037ZM1326,11.035C1332.94,11.518 1338.49,17.065 1338.98,24L1332.43,24C1331.99,20.66 1329.34,18.012 1326,17.567L1326,11.035Z" style="fill:rgb(245,214,61);"/>
                    </g>
                </g>
                <g transform="matrix(0.9375,0,0,0.909091,-1679.5,-1075.64)">
                    <path d="M1916.84,1455.5C1920.55,1455.83 1924.28,1456 1928,1456C1931.72,1456 1935.45,1455.83 1939.16,1455.5L1937.48,1435.77C1934.33,1436.06 1931.16,1436.2 1928,1436.2C1924.84,1436.2 1921.67,1436.06 1918.52,1435.77L1916.84,1455.5Z" style="fill:none;stroke:rgb(245,214,61);stroke-width:8.66px;"/>
                </g>
                <g transform="matrix(0.9375,0,0,0.909091,-1679.5,-1075.64)">
                    <path d="M1894.87,1451.5C1905.68,1454.49 1916.81,1456 1928,1456C1939.19,1456 1950.32,1454.49 1961.13,1451.5L1956.16,1432.38C1946.98,1434.91 1937.51,1436.2 1928,1436.2C1918.49,1436.2 1909.03,1434.91 1899.84,1432.38L1894.87,1451.5Z" style="fill:none;stroke:rgb(245,214,61);stroke-width:8.66px;"/>
                </g>
                <g transform="matrix(0.9375,0,0,0.909091,-1679.5,-1075.64)">
                    <path d="M1873.9,1443.63C1890.85,1451.78 1909.31,1456 1928,1456C1946.69,1456 1965.15,1451.78 1982.1,1443.63L1973.98,1425.69C1959.58,1432.61 1943.89,1436.2 1928,1436.2C1912.11,1436.2 1896.42,1432.61 1882.02,1425.69L1873.9,1443.63Z" style="fill:none;stroke:rgb(245,214,61);stroke-width:8.66px;"/>
                </g>
            </g>
        </g>
    </g>
</svg>
